X:1012
%%score ( 1 2 )
T:Roses In Bloom #1
C:Joe Buchanan's Scottish Tome - Page 603.0-604.0
I:603 0
Z:Carl Allison
C:Jim Johnston
R:Waltz
L:1/4
M:3/4
K:Bb
V:1
F | "Bb"F G A | B A>G | D3- | D2 F | F G A | B A z/ G/ | "Cm"E3- | "F7"E2 F |
"F7"F G A | c A G | F3 | C3 | F A G | F C ^C | "Bb"D3- | D2 F |
"Bb"F G A | B A G | D3- | D2 F | F G A | "Bb7"B c d | "Eb"G3- | "Cm"G3 |
"Eb"e f g | "Ebm"B c ^c | "Bb"d3 | F3 | "F7"F c A | F G z/ A/ | "Bb"B3- | B2 :|
F | "Bb"d2 ^c | d2 ^c | d3 | F3 | d c B | A B z/ G/ | "F7"A3- | A2 F |
"F7"e2 d | e2 d | e3 | F3 | F A B | c2 ^c | "Bb"d3- | d2 F |
"Bb"d2 ^c | d2 c | d3 | F3 |  d f d | B A _A | "Eb"G3- | "Cm"G3 |
"Eb"e g f | e d ^c | e3 | F3 | "F7"F c A | F G>F | "Bb"B3- | B2 |]
%%newpage
